moscow-sport/img/logo-small.svg

<svg width="166" height="230" viewBox="0 0 166 230" fill="none" xmlns="http://www.w3.org/2000/svg">
<path d="M39.2099 229.879H36.3055V210.642H39.2099V218.264H39.694C41.2672 218.264 41.7513 216.57 41.7513 215.239V210.642H44.7768V214.997C44.7768 217.054 44.0507 218.506 42.5984 219.595C44.1717 220.684 44.7768 222.135 44.7768 224.192V230H41.8723V223.95C41.8723 222.74 41.2672 221.168 39.815 221.168H39.331V229.879H39.2099ZM89.3115 229.879V210.642H91.9739V221.893L94.9994 210.642H98.2669V229.879H95.6045V216.449L91.9739 229.879H89.3115ZM100.324 229.879V210.642H102.987V221.893L106.012 210.642H109.28V229.879H106.617V216.449L102.987 229.879H100.324ZM108.069 206.044V208.343H101.534V206.044H108.069ZM81.8084 229.879H78.9039V210.642H81.8084V218.264H82.2924C83.8657 218.264 84.3498 216.57 84.3498 215.239V210.642H87.2542V214.997C87.2542 217.054 86.5281 218.506 85.0759 219.595C86.6491 220.684 87.2542 222.135 87.2542 224.192V230H84.3498V223.95C84.3498 222.74 83.7447 221.168 82.2924 221.168H81.8084V229.879ZM28.3183 229.879H25.4138V210.642H28.3183H31.1017H34.1272V218.385H31.1017V213.424H28.3183V227.217H31.1017V222.256H34.1272V230H31.1017H28.3183V229.879ZM70.9167 229.879H68.0123V210.642H70.9167H73.7002H76.7256V218.385H73.7002V213.424H70.9167V227.217H73.7002V222.256H76.7256V230H73.7002H70.9167V229.879ZM20.3311 213.303H17.5477C17.5477 217.901 17.5477 222.377 17.5477 227.096H20.3311C20.3311 222.498 20.3311 218.022 20.3311 213.303ZM17.5477 229.879H14.5222C14.5222 223.466 14.5222 217.054 14.5222 210.642H17.4266H20.2101H23.2355C23.2355 217.054 23.2355 223.466 23.2355 229.879H20.2101H17.5477ZM52.643 213.303H49.8595C49.8595 217.901 49.8595 222.377 49.8595 227.096H52.643C52.643 222.498 52.643 218.022 52.643 213.303ZM49.8595 229.879H46.9551C46.9551 223.466 46.9551 217.054 46.9551 210.642H49.8595H52.643H55.6684C55.6684 217.054 55.6684 223.466 55.6684 229.879H52.643H49.8595ZM60.6302 213.303V218.506C61.7193 218.506 63.0505 218.506 63.0505 216.57V214.755V213.303H60.6302ZM60.6302 221.289V227.096H63.0505C63.0505 225.886 63.0505 224.555 63.0505 223.345C63.0505 221.41 61.7193 221.168 60.6302 221.289ZM66.076 214.029V214.876V216.449C66.076 218.022 65.4709 219.111 64.3817 219.837C65.4709 220.684 66.076 222.014 66.076 223.708C66.076 225.765 66.076 227.943 66.076 230C64.2607 230 62.4454 230 60.7512 230H57.8468V210.642H60.7512C62.5665 210.642 64.3817 210.642 66.076 210.642V214.029ZM6.29295 223.466C7.01906 219.353 8.10823 214.755 8.5923 210.521H12.5859V229.758H9.9235V222.135L10.2866 215.239C9.9235 217.417 8.47128 225.644 6.65601 229.516H6.29295H6.05092C4.23564 225.644 2.78342 217.417 2.42037 215.239L2.78342 222.135V229.758H0V210.642H3.9936C4.47768 214.755 5.44582 219.353 6.29295 223.466Z" fill="white"/>
<path d="M150.547 213.424V222.015C151.636 222.136 152.967 221.894 152.967 219.958V218.143V213.424H150.547ZM155.993 217.296V218.143V219.716C155.993 222.74 154.419 224.797 151.636 224.797H150.668V230H147.642V210.642C150.426 210.642 153.209 210.642 155.993 210.642V217.296ZM156.719 210.642H165.795V213.424H162.77V230H159.865V213.424H156.84V210.642H156.719ZM142.56 213.424H139.776C139.776 218.022 139.776 222.498 139.776 227.217H142.56C142.56 222.498 142.56 218.022 142.56 213.424ZM139.776 229.879H136.872C136.872 223.466 136.872 217.054 136.872 210.642H139.776H142.56H145.585C145.585 217.054 145.585 223.466 145.585 229.879H142.56H139.776ZM118.114 229.879H115.209V210.642H118.114H120.897H123.923V218.385H120.897V213.424H118.114V227.217H120.897V222.257H123.923V230H120.897H118.114V229.879ZM129.006 229.879H126.101V210.642H134.814V229.879H131.789V213.303H129.006V229.879Z" fill="white"/>
<path d="M89.9166 142.526C93.1841 146.519 96.6936 150.269 100.445 153.899C117.993 170.595 140.623 182.694 165.795 187.776V172.773C144.859 167.934 126.101 157.65 111.337 143.615C106.496 139.017 102.018 133.936 98.1458 128.612L89.9166 142.526Z" fill="white"/>
<path d="M35.3362 126.796C51.7947 111.189 62.0813 89.5316 62.0813 65.8178V0H77.4506V65.8178C77.4506 77.4328 79.3869 90.9835 82.8964 101.51C86.406 90.9835 88.3423 77.4328 88.3423 65.8178V0H103.712V65.8178C103.712 89.5316 113.998 111.189 130.457 126.796C140.259 136.112 152.361 143.372 165.794 147.727V163.093C148.125 158.374 132.272 149.3 119.565 137.201C110.126 128.127 102.38 117.359 97.0556 105.381C93.062 115.665 88.5843 125.465 83.0175 132.967C77.4506 125.586 72.9729 115.786 68.9793 105.381C63.5335 117.359 55.9094 128.006 46.3489 137.08C33.642 149.179 17.7886 158.132 0.119909 162.972V147.727C13.5529 143.372 25.5338 136.112 35.3362 126.796Z" fill="white"/>
<path d="M128.521 64.3661C128.521 81.6675 136.025 97.396 148.005 108.89C153.209 113.85 159.26 117.964 165.916 121.11V137.08C155.024 133.088 145.222 127.038 137.114 119.295C122.228 105.139 113.152 85.7811 113.152 64.3661V49.6055H128.521V64.3661Z" fill="white"/>
<path d="M37.3946 49.6055H52.764V64.4871C52.764 85.7811 43.5666 105.26 28.8023 119.295C20.6941 127.038 10.8916 133.088 -2.28882e-05 137.08V121.11C6.65598 117.964 12.7069 113.85 17.9107 108.89C29.8915 97.517 37.3946 81.7885 37.3946 64.3661V49.6055Z" fill="white"/>
<path d="M67.7703 128.491C63.7766 133.815 59.42 138.896 54.5793 143.494C39.815 157.529 21.0572 167.813 0.121008 172.652V187.655C25.2928 182.573 47.8022 170.474 65.4709 153.778C69.2225 150.148 72.732 146.398 75.9995 142.405L67.7703 128.491Z" fill="white"/>
</svg>

<svg width="166" height="230" fill="none" xmlns="http://www.w3.org/2000/svg"><path d="M39.21 229.879h-2.904v-19.237h2.904v7.622h.484c1.573 0 2.057-1.694 2.057-3.025v-4.597h3.026v4.355c0 2.057-.726 3.509-2.179 4.598 1.574 1.089 2.179 2.54 2.179 4.597V230h-2.905v-6.05c0-1.21-.605-2.782-2.057-2.782h-.484v8.711h-.121zm50.101 0v-19.237h2.663v11.251l3.025-11.251h3.268v19.237h-2.662v-13.43l-3.631 13.43H89.31zm11.013 0v-19.237h2.663v11.251l3.025-11.251h3.268v19.237h-2.663v-13.43l-3.63 13.43h-2.663zm7.745-23.835v2.299h-6.535v-2.299h6.535zm-26.26 23.835h-2.905v-19.237h2.904v7.622h.484c1.574 0 2.058-1.694 2.058-3.025v-4.597h2.904v4.355c0 2.057-.726 3.509-2.178 4.598 1.573 1.089 2.178 2.54 2.178 4.597V230H84.35v-6.05c0-1.21-.605-2.782-2.058-2.782h-.484v8.711zm-53.49 0h-2.905v-19.237h8.713v7.743h-3.025v-4.961h-2.784v13.793h2.784v-4.961h3.025V230H28.318v-.121zm42.598 0h-2.905v-19.237H76.726v7.743H73.7v-4.961h-2.783v13.793H73.7v-4.961h3.026V230H70.917v-.121zM20.33 213.303h-2.783v13.793h2.783v-13.793zm-2.783 16.576h-3.026v-19.237h8.713v19.237H17.548zm35.095-16.576h-2.784v13.793h2.784v-13.793zm-2.784 16.576h-2.904v-19.237h8.713v19.237H49.86zm10.771-16.576v5.203c1.09 0 2.42 0 2.42-1.936v-3.267h-2.42zm0 7.986v5.807h2.42v-3.751c0-1.935-1.33-2.177-2.42-2.056zm5.446-7.26v2.42c0 1.573-.605 2.662-1.694 3.388 1.089.847 1.694 2.177 1.694 3.871V230h-8.229v-19.358h8.229v3.387zm-59.783 9.437c.726-4.113 1.815-8.711 2.3-12.945h3.993v19.237H9.924v-7.623l.363-6.896c-.364 2.178-1.816 10.405-3.631 14.277h-.605c-1.815-3.872-3.268-12.099-3.63-14.277l.362 6.896v7.623H0v-19.116h3.994c.484 4.113 1.452 8.711 2.299 12.824zM150.547 213.424v8.591c1.089.121 2.42-.121 2.42-2.057V213.424h-2.42zm5.446 3.872v2.42c0 3.024-1.574 5.081-4.357 5.081h-.968V230h-3.026v-19.358h8.351v6.654zm.726-6.654h9.076v2.782h-3.025V230h-2.905v-16.576h-3.025v-2.782h-.121zm-14.159 2.782h-2.784v13.793h2.784v-13.793zm-2.784 16.455h-2.904v-19.237h8.713v19.237H139.776zm-21.662 0h-2.905v-19.237H123.923v7.743h-3.026v-4.961h-2.783v13.793h2.783v-4.96h3.026V230H118.114v-.121zm10.892 0h-2.905v-19.237h8.713v19.237h-3.025v-16.576h-2.783v16.576zM89.917 142.526c3.267 3.993 6.777 7.743 10.528 11.373 17.548 16.696 40.178 28.795 65.35 33.877v-15.003c-20.936-4.839-39.694-15.123-54.458-29.158-4.841-4.598-9.319-9.679-13.191-15.003l-8.23 13.914z" fill="#fff"/><path d="M35.336 126.796c16.459-15.607 26.745-37.264 26.745-60.978V0h15.37v65.818c0 11.615 1.936 25.166 5.445 35.692 3.51-10.526 5.446-24.077 5.446-35.692V0h15.37v65.818c0 23.714 10.286 45.371 26.745 60.978 9.802 9.316 21.904 16.576 35.337 20.931v15.366a107.234 107.234 0 0 1-46.229-25.892c-9.439-9.074-17.185-19.842-22.51-31.82-3.993 10.284-8.47 20.084-14.038 27.586-5.566-7.381-10.044-17.181-14.038-27.586-5.446 11.978-13.07 22.625-22.63 31.699-12.707 12.099-28.56 21.052-46.23 25.892v-15.245a92.554 92.554 0 0 0 35.217-20.931z" fill="#fff"/><path d="M128.521 64.366c0 17.302 7.504 33.03 19.484 44.524 5.204 4.96 11.255 9.074 17.911 12.22v15.97c-10.892-3.992-20.694-10.042-28.802-17.785-14.886-14.156-23.962-33.514-23.962-54.929v-14.76h15.369v14.76zM37.395 49.605h15.369v14.882c0 21.294-9.197 40.773-23.962 54.808-8.108 7.743-17.91 13.793-28.802 17.785v-15.97c6.656-3.146 12.707-7.26 17.91-12.22 11.982-11.373 19.485-27.102 19.485-44.524v-14.76zM67.77 128.491c-3.993 5.324-8.35 10.405-13.19 15.003C39.814 157.529 21.056 167.813.12 172.652v15.003c25.172-5.082 47.681-17.181 65.35-33.877 3.751-3.63 7.261-7.38 10.528-11.373l-8.229-13.914z" fill="#fff"/></svg>
